X: 170
T: Aşkım Güzel Cânânım Güzel
C: Nev´eser Kökdeş
O: Turkey
F: http://compmusic.upf.edu/node/140
N: rast--sarki--semai--askim_guzel--neveser_kokdes
N: makam= rast
N: form= sarki
N: usul= semai = 3/4
M: 3/4
L: 1/16
K: C _1/4B ^f  
Q: 1/4=120
%%MIDI tuningsystem comma53
A3G F2G2 A2B2  | G12  | c3B A2B2 c2e2  | d12  | \
w:  ARANAĞME  |   |   |   | 
a3g =f2e2 d2e2  | d2c2 B2A2 G4  | 
w:   |   | 
D2G2 F2G2 A2B2  | G12  | A3G F2G2 A2B2  | G12  | \
w:   |   |  ARANAĞME  |   | 
c3B A2B2 c2e2  | d12  | 
w:   |   | 
a3g =f2e2 d2e2  | d2c2 B2A2 G4  | D2G2 F2G2 A2B2  | G12  | g12  | \
w:   |   |   |   |  Aş  | 
g2f2 e6f2  | 
w:  kım *  *  gü  | 
d12  | c2B2 A2B2 c2d2  | B8 G4  | A8 F4  | G12  | G12  | G12  | d12  | \
w:  zel  |  ca  |  na  |  nım gü  |  zel  |   |   |  Se  | 
e4 =f4 a4  | g4 =f4 e4  | 
w:  vin *  ce  |  gö  | 
d4 c4 B4  | d6^c2 =B4  | ^c4 d4 e2d2  | \
w:  nül  |  her  |  şey *  gü  | 
d8 B4  | c2A2 G8  | g12  | g2f2 e6f2  | d12  | 
w:  zel  |  SAZ  |  Aş  |  kım *  *  gü  |  zel  | 
c2B2 A2B2 c2d2  | B8 G4  | A8 F4  | G12  | G12  | G12  | d12  | \
w:  ca  |  na  |  nım gü  |  zel  |   |   |  Se  | 
e4 =f4 a4  | g4 =f4 e4  | d4 c4 B4  | 
w:  vin *  ce  |  gö  |  nül  | 
d6^c2 =B4  | ^c4 d4 e2d2  | d8 B4  | c2B2 d8  | \
w:  her  |  şey *  gü  |  zel  |  SAZ  | 
g2f2 g6a2  | b12  | f2e2 f6g2  | 
w:  Ba *  har gü  |  zel  |  meh *  tap gü  | 
a12  | g4 =f4 e4  | d4 c4 B4  | ^A4 B4 c2B2  | B12  | \
w:  zel  |  a *  le  |  mi  |  şeb *  gü  |  zel  | 
G2A2 B2c2 d2e2  | d12  | d2e2 f2g2 a2g2  | 
w:  e *  *  *  le  |  le  |  göz *  *  *  gö  | 
g12  | c2B2 A2B2 c2d2  | B8 G4  | A8 F4  | G12  | \
w:  ze  |  ya *  *  *  ri  |  le sey  |  ran gü  |  zel  | 
g2f2 g6a2  | b12  | f2e2 f6g2  | 
w:  Ba *  har gü  |  zel  |  meh *  tap gü  | 
a12  | g4 =f4 e4  | d4 c4 B4  | ^A4 B4 c2B2  | B12  | \
w:  zel  |  a *  le  |  mi  |  şeb *  gü  |  zel  | 
G2A2 B2c2 d2e2  | d12  | d2e2 f2g2 a2g2  | 
w:  e *  *  *  le  |  le  |  göz *  *  *  gö  | 
g12  | c2B2 A2B2 c2d2  | B8 G4  | A8 F4  | G12  | \
w:  ze  |  ya *  *  *  ri  |  le sey  |  ran gü  |  zel  | 
b8 b4  | b12  | c'2b2 a4 b4  | c'12  | a8 a4  | 
w:  Bir le  |  şen  |  gön *  *  lü  |  müz  |  geç se  | 
a4 _7/8b4 ^c'4  | d'2^c'2 _7/8b2a2 g2f2  | g12  | \
w:  böy *  le  |  öm *  *  *  rü  |  müz  | 
f4 g4 b4  | a4 g4 f4  | e4 ^d4 f4  | e12  | \
w:  Se viş  |  mek *  tir  |  sö *  zü  |  müz  | 
d8 d4  | 
w:  Sa a  | 
d6^c2 =B4  | ^c4 d4 e2d2  | d12  | d8 z4  | \
w:  det *  te  |  gö *  zü  |  müz  |   | 
g2f2 g6a2  | b12  | f2e2 f6g2  | a12  | g4 =f4 e4  | 
w:  Ba *  har gü  |  zel  |  meh *  tap gü  |  zel  |  a *  le  | 
d4 c4 B4  | ^A4 B4 c2B2  | B12  | G2A2 B2c2 d2e2  | d12  | \
w:  mi  |  şeb *  gü  |  zel  |  e *  *  *  le  |  le  | 
d2e2 f2g2 a2g2  | 
w:  göz *  *  *  gö  | 
g12  | c2B2 A2B2 c2d2  | B8 G4  | A8 F4  | G12  | \
w:  ze  |  ya *  *  *  ri  |  le sey  |  ran gü  |  zel  | 
g2f2 g6a2  | b12  | f2e2 f6g2  | 
w:  Ba *  har gü  |  zel  |  meh *  tap gü  | 
a12  | g4 =f4 e4  | d4 c4 B4  | ^A4 B4 c2B2  | B12  | \
w:  zel  |  a *  le  |  mi  |  şeb *  gü  |  zel  | 
G2A2 B2c2 d2e2  | d12  | d2e2 f2g2 a2g2  | 
w:  e *  *  *  le  |  le  |  göz *  *  *  gö  | 
g12  | c2B2 A2B2 c2d2  | B8 G4  | A8 F4  | G12  | |


